src/pos-icons/redhat.svg

<svg height="24" viewBox="0 0 24 24" width="24" xmlns="http://www.w3.org/2000/svg"><path d="m15.34 13.16c1.32 0 3.22-.27 3.22-1.84.01-.12 0-.24-.03-.36l-.78-3.4c-.18-.75-.34-1.09-1.66-1.75-1.02-.52-3.24-1.38-3.9-1.38-.61 0-.79.79-1.52.79-.7 0-1.22-.59-1.88-.59-.63 0-1.04.43-1.36 1.31 0 0-.88 2.5-1 2.86-.01.07-.02.13-.02.2 0 .97 3.82 4.15 8.93 4.15m3.43-1.19c.18.86.18.95.18 1.04 0 1.5-1.66 2.31-3.83 2.31-4.92 0-9.23-2.88-9.23-4.78 0-.27.06-.53.16-.77-1.77.08-4.05.4-4.05 2.42 0 3.32 7.84 7.39 14.05 7.39 4.76 0 5.95-2.15 5.95-3.85 0-1.34-1.15-2.86-3.23-3.76"/></svg>

<?xml version="1.0" encoding="UTF-8"?><!DOCTYPE svg PUBLIC "-//W3C//DTD SVG 1.1//EN" "http://www.w3.org/Graphics/SVG/1.1/DTD/svg11.dtd"><svg xmlns="http://www.w3.org/2000/svg" xmlns:xlink="http://www.w3.org/1999/xlink" version="1.1" id="mdi-redhat" width="24" height="24" viewBox="0 0 24 24"><path d="M15.34 13.16C16.66 13.16 18.56 12.89 18.56 11.32C18.57 11.2 18.56 11.08 18.53 10.96L17.75 7.56C17.57 6.81 17.41 6.47 16.09 5.81C15.07 5.29 12.85 4.43 12.19 4.43C11.58 4.43 11.4 5.22 10.67 5.22C9.97 5.22 9.45 4.63 8.79 4.63C8.16 4.63 7.75 5.06 7.43 5.94C7.43 5.94 6.55 8.44 6.43 8.8C6.42 8.87 6.41 8.93 6.41 9C6.41 9.97 10.23 13.15 15.34 13.15M18.77 11.96C18.95 12.82 18.95 12.91 18.95 13C18.95 14.5 17.29 15.31 15.12 15.31C10.2 15.31 5.89 12.43 5.89 10.53C5.89 10.26 5.95 10 6.05 9.76C4.28 9.84 2 10.16 2 12.18C2 15.5 9.84 19.57 16.05 19.57C20.81 19.57 22 17.42 22 15.72C22 14.38 20.85 12.86 18.77 11.96" /></svg>
